X:1
T:Minuet in G Minor
T:Minuet in G Minor
T:Christian Petzold
T:BWV Anh. 115
C:Christian Petzold
%%score { 1 | ( 2 3 ) }
L:1/8
Q:1/4=120
M:3/4
K:Bb
V:1 treble nm="Piano" snm="Pno."
V:2 bass 
V:3 bass 
V:1
 (b2 a2) g2 | a2 d2 d2 | g2 (GA)(Bc) | d6 | e2 (fe)(dc) | d2 (ed)(cB) | c2 (dc)Bc | %7
 (5:4:5(B/4A/4B/4A/4B/4A- A4) | b2 (5:4:5(b/4a/4b/4a/4b/4a g2) | a2 d2 d2 | g2 (GA)(Bc) | d6 | %12
 (f/4=e/4f3/2) (gf)(_ed) | e2 (fe)(dc) | d2 g2 (3(d/c/d/c) | [DFB]6 :: d2 (Bc)(d=e) | (f2 g2) a2 | %18
 b2 (ga)bg | a2 (ga) f2 | (FG)(AB)(cd) | (e2 d2) c2 | f2 (B2 A2) | B6 | G2 (dc) d2 | G2 (ed) e2 | %26
 Gd^FcGB | A6 | (D=E)(^FG)(AB) | (c2 B2) A2 | (c/4B/4c/4B/4c/d/) G2 ^F2 | [B,DG]6 :| %32
V:2
 G,6 | F,6 | E,6 | D,2 (DC)(B,A,) | [G,B,]4 A,2 | B,4 G,2 | (A,2 ^F,2) G,2 | D,2 (DC)B,A, | G,6 | %9
 F,6 | E,6 | D,2 (DC)=B,A, | D6 | C2 A,2 F,2 | B,2 E,2 [F,A,]2 | B,2 B,,4 :: B,6 | (A,2 G,2) F,2 | %18
 G,2 E,2 C,2 | F,6 | A,2 G,2 F,2 | (G,2 F,2) E,2 | D,2 (E,2 F,2) | B,,2 (D2 C2) | [=B,D]6 | C6 | %26
 (B,2 A,2) G,2 | D2 (A,G,)^F,=E, | D,4 z2 | (E,2 D,2) C,2 | B,,2 C,2 D,2 | G,2 G,,4 :| %32
V:3
 x6 | x6 | x6 | x6 | x6 | x6 | x6 | x6 | x6 | x6 | x6 | x6 | =B,4 G,2 | x6 | x6 | x6 :: x6 | x6 | %18
 x6 | x6 | x6 | x6 | x6 | x6 | x6 | x6 | x6 | x6 | x6 | x6 | x6 | x6 :| %32

